Newaita/actions/24/edit-select-invert.svg

<svg height="24" viewBox="0 0 24 24" width="24" xmlns="http://www.w3.org/2000/svg"><g fill="#424242"><path d="m16.125 7.878906c-2.335938-2.335937-6.097656-2.335937-8.433594 0-2.335937 2.335938-2.335937 6.097656 0 8.433594zm0 0"/><path d="m16.125 7.878906c2.335938 2.335938 2.335938 6.097656 0 8.433594s-6.097656 2.335938-8.433594 0zm0 0" fill-opacity=".392157"/><path d="m3.96875 2.171875c-1.097656 0-1.984375.886719-1.984375 1.984375v3.96875h1.984375v-2.976562c0-.550782.441406-.992188.992188-.992188h2.976562v-1.984375zm11.90625 0v1.984375h2.976562c.550782 0 .992188.441406.992188.992188v2.976562h1.988281v-3.96875c0-1.097656-.886719-1.984375-1.988281-1.984375zm-13.890625 13.890625v3.96875c0 1.101562.886719 1.988281 1.984375 1.988281h3.96875v-1.988281h-2.976562c-.550782 0-.992188-.441406-.992188-.992188v-2.976562zm17.859375 0v2.976562c0 .550782-.441406.992188-.992188.992188h-2.976562v1.988281h3.96875c1.101562 0 1.988281-.886719 1.988281-1.988281v-3.96875zm0 0"/></g></svg>

<?xml version="1.0" encoding="UTF-8"?>
<svg xmlns="http://www.w3.org/2000/svg" xmlns:xlink="http://www.w3.org/1999/xlink" width="24px" height="24px" viewBox="0 0 24 24" version="1.1">
<g id="surface1">
<path style=" stroke:none;fill-rule:nonzero;fill:rgb(25.882354%,25.882354%,25.882354%);fill-opacity:1;" d="M 16.125 7.878906 C 13.789062 5.542969 10.027344 5.542969 7.691406 7.878906 C 5.355469 10.214844 5.355469 13.976562 7.691406 16.3125 Z M 16.125 7.878906 "/>
<path style=" stroke:none;fill-rule:nonzero;fill:rgb(25.882354%,25.882354%,25.882354%);fill-opacity:0.392157;" d="M 16.125 7.878906 C 18.460938 10.214844 18.460938 13.976562 16.125 16.3125 C 13.789062 18.648438 10.027344 18.648438 7.691406 16.3125 Z M 16.125 7.878906 "/>
<path style=" stroke:none;fill-rule:nonzero;fill:rgb(25.882354%,25.882354%,25.882354%);fill-opacity:1;" d="M 3.96875 2.171875 C 2.871094 2.171875 1.984375 3.058594 1.984375 4.15625 L 1.984375 8.125 L 3.96875 8.125 L 3.96875 5.148438 C 3.96875 4.597656 4.410156 4.15625 4.960938 4.15625 L 7.9375 4.15625 L 7.9375 2.171875 Z M 15.875 2.171875 L 15.875 4.15625 L 18.851562 4.15625 C 19.402344 4.15625 19.84375 4.597656 19.84375 5.148438 L 19.84375 8.125 L 21.832031 8.125 L 21.832031 4.15625 C 21.832031 3.058594 20.945312 2.171875 19.84375 2.171875 Z M 1.984375 16.0625 L 1.984375 20.03125 C 1.984375 21.132812 2.871094 22.019531 3.96875 22.019531 L 7.9375 22.019531 L 7.9375 20.03125 L 4.960938 20.03125 C 4.410156 20.03125 3.96875 19.589844 3.96875 19.039062 L 3.96875 16.0625 Z M 19.84375 16.0625 L 19.84375 19.039062 C 19.84375 19.589844 19.402344 20.03125 18.851562 20.03125 L 15.875 20.03125 L 15.875 22.019531 L 19.84375 22.019531 C 20.945312 22.019531 21.832031 21.132812 21.832031 20.03125 L 21.832031 16.0625 Z M 19.84375 16.0625 "/>
</g>
</svg>
